images/beard/beard-4.svg

<svg width="57" height="97" viewBox="0 0 57 97" fill="none" xmlns="http://www.w3.org/2000/svg">
<path d="M51.12 15.1339C50.73 9.72185 50.51 4.35944 48.6 0C47.84 0 47.07 7.25911 46.32 10.844C44.84 17.9343 42.61 19.0663 41.88 19.0663C41 15.2332 37.5 14.8956 34.08 13.2273C32.9573 12.6289 31.7397 12.2258 30.48 12.0356C29.8113 12.0254 29.1427 12.0653 28.48 12.1548C27.8173 12.0653 27.1487 12.0254 26.48 12.0356C25.2203 12.2258 24.0027 12.6289 22.88 13.2273C19.46 14.8559 15.94 15.2134 15.08 19.0663C14.35 19.0663 12.08 17.9343 10.64 10.844C9.93 7.25911 9.16 0 8.4 0C6.49 4.35944 6.27 9.72185 5.88 15.1339C5 38.51 0 51.1713 0 61.9656C0 87.8541 11.71 97 28.5 97C45.29 97 57 87.8541 57 61.9656C57 51.1713 52 38.51 51.12 15.1339ZM34.44 24.826C31.65 25.9878 29.09 24.1209 28.56 24.111H28.44C27.91 24.111 25.35 25.9878 22.56 24.826C21.78 21.2709 24.96 20.8538 28.5 20.9432C32.05 20.7744 35.23 21.2312 34.44 24.826Z" fill="#826550"/>
</svg>

<svg width="57" height="97" fill="none" xmlns="http://www.w3.org/2000/svg"><path d="M51.12 15.13C50.73 9.73 50.51 4.36 48.6 0c-.76 0-1.53 7.26-2.28 10.84-1.48 7.1-3.71 8.23-4.44 8.23-.88-3.84-4.38-4.17-7.8-5.84-1.12-.6-2.34-1-3.6-1.2-.67 0-1.34.04-2 .12-.66-.08-1.33-.12-2-.11-1.26.19-2.48.59-3.6 1.19-3.42 1.63-6.94 1.98-7.8 5.84-.73 0-3-1.14-4.44-8.23C9.93 7.26 9.16 0 8.4 0 6.49 4.36 6.27 9.72 5.88 15.13 5 38.51 0 51.17 0 61.97 0 87.85 11.71 97 28.5 97S57 87.85 57 61.97c0-10.8-5-23.46-5.88-46.84Zm-16.68 9.7c-2.79 1.16-5.35-.7-5.88-.72h-.12c-.53 0-3.09 1.88-5.88.72-.78-3.56 2.4-3.98 5.94-3.89 3.55-.17 6.73.3 5.94 3.89Z" fill="#826550"/></svg>
